X:1
T:Jenny Lind
M:4/4
R:Polka
K:D
AG | F2 A2 G2 B2 | A2 f2 fe f2 | G2 e2 edea | F2 d2 dcdA |
F2 A2 G2 B2 | A2 f2 fe f2 | G2 E2 CDEC | D2 F2 D2:|
K:G
ef | g2 e2 efge | d2 B2 BA B2 | c2 A2 AG A2 | B2 G2 GF G2 |
g2 e2 efge | d2 B2 BA B2 | c2 A2 FGAF | G2B2G2:|
